resources/svg/html5-line.svg

<svg fill="currentColor" viewBox="0 0 24 24" xmlns="http://www.w3.org/2000/svg"><path d="M12 18.1778L7.38083 16.9222L7.0517 13.3778H9.32156L9.48045 15.2222L12 15.8889L14.5195 15.2222L14.7806 12.3556H6.96091L6.32535 5.67778H17.6747L17.4477 7.88889H8.82219L9.02648 10.1444H17.2434L16.6192 16.9222L12 18.1778ZM3 2H21L19.377 20L12 22L4.62295 20L3 2ZM5.18844 4L6.48986 18.4339L12 19.9278L17.5101 18.4339L18.8116 4H5.18844Z"/></svg>

<svg xmlns="http://www.w3.org/2000/svg" viewBox="0 0 24 24" fill="currentColor">
    <g>
        <path fill="none" d="M0 0h24v24H0z"/>
        <path fill-rule="nonzero" d="M12 18.178l-4.62-1.256-.328-3.544h2.27l.158 1.844 2.52.667 2.52-.667.26-2.866H6.96l-.635-6.678h11.35l-.227 2.21H8.822l.204 2.256h8.217l-.624 6.778L12 18.178zM3 2h18l-1.623 18L12 22l-7.377-2L3 2zm2.188 2L6.49 18.434 12 19.928l5.51-1.494L18.812 4H5.188z"/>
    </g>
</svg>
